X:111
T: Fahr mir nit ueber mein Aeckerchen,
N: D0165
O: Europa, Mitteleuropa, Deutschland, Untermainfranken, Spessart
N: Inzipit = Variante zum Lied
R: Tanz - Lied
M: 3/4
L: 1/8
K: G
d3dd2 | e2d2c2 | B2B2B2 |
d3dd2 | e2d2c2 | B4z2 |
B3AB2 | c2B2A2 | d3dd2 |
B3BB2 | c2B2A2 | G4z2

@@@ Tune index: 2633
